src/assets/icons/utilities.svg

<svg width="24" height="24" viewBox="0 0 24 24" fill="none" xmlns="http://www.w3.org/2000/svg">
<path fill-rule="evenodd" clip-rule="evenodd" d="M16.2863 21.4587C19.0592 21.4587 21.307 19.2108 21.307 16.438C21.307 14.5894 19.6334 11.4597 16.2863 7.04883C12.9391 11.4597 11.2656 14.5894 11.2656 16.438C11.2656 19.2109 13.5135 21.4587 16.2863 21.4587Z" fill="black"/>
<path fill-rule="evenodd" clip-rule="evenodd" d="M4.48657 2.34766H10.8355L10.0065 7.04606H13.0205L5.02128 17.8527L5.92138 10.0997H3.17188L4.48657 2.34766Z" fill="black"/>
</svg>

<svg xmlns="http://www.w3.org/2000/svg" width="24" height="24" fill="none"><path fill="#000" fill-rule="evenodd" d="M16.286 21.459a5.02 5.02 0 0 0 5.021-5.021q0-2.773-5.02-9.39-5.021 6.617-5.021 9.39a5.02 5.02 0 0 0 5.02 5.02M4.487 2.348h6.349l-.83 4.698h3.015l-8 10.807.9-7.753h-2.75z" clip-rule="evenodd"/></svg>
